X:38
T:The clumsy lover
R:Reel
C:Neil Dickie
S:from Barra MacNeills' Traditional Album- rearranged mdl
S:My arrangement from various sources
Z:Transcription, arrangement, chords:Mike Long
M:C|
L:1/8
K:D
"A"ceef ecBA|"D"dffd afdf|"A"ceef ecBA|"G"d2Bc d2cB|\
"A"ceef ecBA|
"D"dffd gfed|"A"ceec "G"d2dB|"A"{d}BAAB A2ed:|\
|:"A"ceea {b}aecA|"D"dAdf afdf|
"A"ceea {b}aecA|"G"d2Bc d2cB|\
"A"ceea {b}aecA|"D"dAdf afdf|"A"ceec "G"d2dB|"A"{d}BAAB A2ed:|
|:"A"ceeA e2cA|"D"d2fg- gfed|"A"ceeA e2cA|"G"d2Bc d2cB|\
"A"ceeA e2cA|"D"d2fg- gfed|
"A"ceec "G"d2dB|"A"{d}BAAB A2ed:|\
|:"A"caac aaca|"D"daad aada|"A"caac aaca|
"E"Baca daea|\
"A"caac aaca|"D"daaf aada|"A"ceec "G"d2GB|"A"BAAB A2ed:|
